azure-docs/api_content_moderator.svg

<?xml version="1.0" encoding="UTF-8"?>
<svg width="512px" height="512px" viewBox="0 0 512 512" version="1.1" xmlns="http://www.w3.org/2000/svg" xmlns:xlink="http://www.w3.org/1999/xlink">
    <!-- Generator: Sketch 46.2 (44496) - http://www.bohemiancoding.com/sketch -->
    <title>contentModerator-wht-bluBG-512p</title>
    <desc>Created with Sketch.</desc>
    <defs></defs>
    <g id="PRODUCTION-ICONS" stroke="none" stroke-width="1" fill="none" fill-rule="evenodd">
        <g id="contentModerator-wht-bluBG-512p">
            <g id="Content-Moderator">
                <rect id="Rectangle-3-Copy-2" fill="#0063B1" x="0" y="0" width="512" height="512"></rect>
                <path d="M381.222116,229.276444 C381.222116,293.612089 322.353493,372.039111 255.998293,385.8176 C189.643093,372.039111 130.78016,293.612089 130.78016,229.276444 L130.78016,164.770133 C131.764338,163.8656 132.987449,162.801778 134.443804,161.607111 C140.468338,156.657778 147.93216,151.662933 156.897849,146.963911 C182.935893,133.327644 215.755093,125.090133 255.998293,125.090133 C296.241493,125.090133 329.066382,133.327644 355.098738,146.963911 C364.064427,151.662933 371.533938,156.657778 377.552782,161.607111 C379.009138,162.801778 380.232249,163.8656 381.222116,164.770133 L381.222116,229.276444 Z M401.121849,152.630044 C399.460693,150.724267 396.428516,147.748978 391.962738,144.079644 C384.766293,138.1632 376.011093,132.303644 365.628871,126.865067 C336.376604,111.5392 299.94496,102.397156 255.998293,102.397156 C212.057316,102.397156 175.619982,111.5392 146.373404,126.865067 C135.991182,132.303644 127.235982,138.1632 120.039538,144.079644 C115.57376,147.748978 112.541582,150.724267 110.880427,152.630044 L108.087182,155.838578 L108.087182,229.276444 C108.087182,304.807822 175.52896,393.895822 253.91616,408.533333 L255.998293,408.925867 L258.080427,408.533333 C336.467627,393.895822 403.909404,304.802133 403.909404,229.276444 L403.909404,155.838578 L401.121849,152.630044 Z" id="Fill-1" fill="#FFFFFF"></path>
                <path d="M256.094436,307.2 C250.468124,307.2 245.661013,309.065956 241.849458,312.763733 C238.015147,316.484267 236.086613,321.291378 236.086613,327.008711 C236.086613,332.498489 237.986702,337.260089 241.73568,341.134222 C245.52448,345.042489 250.365724,347.022222 256.094436,347.022222 C261.868658,347.022222 266.698524,345.105067 270.401991,341.293511 C274.071324,337.504711 275.908836,332.691911 275.908836,327.008711 C275.908836,321.3824 274.04288,316.603733 270.333724,312.854756 C266.61888,309.0944 261.80608,307.2 256.094436,307.2" id="Fill-4" fill="#FFFFFF"></path>
                <polygon id="Fill-6" fill="#FFFFFF" points="244.622222 284.444444 267.377778 284.444444 267.377778 153.6 244.622222 153.6"></polygon>
            </g>
        </g>
    </g>
</svg>

<svg width="512" height="512" xmlns="http://www.w3.org/2000/svg"><g fill="none" fill-rule="evenodd"><path fill="#0063B1" d="M0 0h512v512H0z"/><path d="M381.222 229.276c0 64.336-58.869 142.763-125.224 156.542-66.355-13.779-125.218-92.206-125.218-156.542V164.77a87.171 87.171 0 0 1 3.664-3.163c6.024-4.95 13.488-9.944 22.454-14.643 26.038-13.636 58.857-21.874 99.1-21.874 40.243 0 73.068 8.238 99.1 21.874 8.966 4.699 16.436 9.694 22.455 14.643a91.592 91.592 0 0 1 3.67 3.163v64.506zm19.9-76.646c-1.661-1.906-4.693-4.881-9.16-8.55-7.196-5.917-15.95-11.776-26.333-17.215-29.252-15.326-65.684-24.468-109.63-24.468-43.942 0-80.379 9.142-109.626 24.468-10.382 5.439-19.137 11.298-26.333 17.215-4.466 3.669-7.498 6.644-9.16 8.55l-2.793 3.209v73.437c0 75.532 67.442 164.62 145.83 179.257l2.081.393 2.082-.393c78.388-14.637 145.83-103.73 145.83-179.257V155.84l-2.788-3.209z" fill="#FFF"/><path d="M256.094 307.2c-5.626 0-10.433 1.866-14.245 5.564-3.834 3.72-5.762 8.527-5.762 14.245 0 5.49 1.9 10.251 5.649 14.125 3.788 3.908 8.63 5.888 14.358 5.888 5.775 0 10.605-1.917 14.308-5.728 3.67-3.79 5.507-8.602 5.507-14.285 0-5.627-1.866-10.405-5.575-14.154-3.715-3.76-8.528-5.655-14.24-5.655M244.622 284.444h22.756V153.6h-22.756z" fill="#FFF"/></g></svg>
